X: 36273
T: Seamus Begley's
R: slide
M: 12/8
K: Dmajor
|:F3 E2D F3- F2A|BcB A2B d3- d2A|1 def d2B ABA AFA|
BAF BAF E3 EDE:|2 def d2B ABA AFD|E3 F2E D3 D2B||
|:A2F A2B AFE D2B|AFA B3 BAF E2B|
A2F A2B AFE D2c|1 dcB AFE F2D D2F:|2 dcB AFE F2D D2E||

